X:48
T:Here's the Tender Coming
Z:Jack Campin, http://www.campin.me.uk/
S:Northumbrian Minstrelsy
M:9/8
L:1/8
K:G Dorian
c2 c A2 c  F2 G|                \
                A2 d  d2 A  c3 |
c3  (A2`G) F2 G|                \
                A2 c  d2 A  G3||
F2 e f2 f  e2 c|                \
                f2 d (c2`A) c3 |
F2 A f2 f  e2 c|                \
                f2 d  c2 A  G3|]

